X:1
T:He Leadeth Me
T:William Batchelder Bradbury, 1864
T:He Leadeth Me
T:Public Domain
T:Public Domain
C:William Batchelder Bradbury, 1864
Z:Public Domain
%%score ( 1 2 ) ( 3 4 )
L:1/8
M:4/4
K:D
V:1 treble 
V:2 treble 
V:3 bass 
V:4 bass 
V:1
 [FA]2 | [DF]3 [A,E] [A,D]2 [DA]2 | [DB]2 [DG]2 [DG]2 [GB]2 | [FA]3 [DF] [DF]2 (ED) | %4
w: 1.~He|lead- eth me, O|bless- èd thought! O|words with heav’n- ly *|
w: 2.~Some-|times mid scenes of|deep- est gloom, Some-|times where E- den’s *|
w: 3.~Lord,|I would place my|hand in Thine, Nor|ev- er mur- mur *|
w: 4.~And|when my task on|earth is done, When|by Thy grace the *|
 [DF]2 [DF]2 [CE]2 [CA]2 | [DF]3 [A,E] [A,D]2 [DA]2 | [DB]2 G2 [Gd]2 (cB) | %7
w: fort fraught! What- e’er|I do, wher- e’er|I be Still ’tis *|
w: ers bloom, By wa-|ters still, o’er trou-|bled sea, Still ’tis *|
w: re- pine; Con- tent,|what- ev- er lot|I see, Since ’tis *|
w: t’ry’s won, E’en death’s|cold wave I will|not flee, Since God *|
 [FA]2 [DF]2 ([DF][CE])([B,D][CE]) | [DF]3 [CE] D3 |:"^Refrain" [FA]2 | [FA]2 [Dd]2 [Ec]2 [Ae]2 | %11
w: hand that lead- * eth *|me. * *|||
w: hand that lead- * eth *|me. * *|||
w: God that lead- * eth *|me. * *|||
w: Jor- dan lead- * eth *|me. * *|||
 [Ad]2 (cB) [FA]2 [GB]2 | [FA]2 [DF]2 ([DF][CE])([B,D][CE]) | [DF]2 [DF]2 [CE]2 :| [DF]3 [CE] D4 |] %15
w: ||||
w: ||||
w: ||||
w: ||||
V:2
 x2 | x8 | x8 | x6 D2 | x8 | x8 | x6 G2 | x8 | x4 D3 |: x2 | x8 | x2 G2 x4 | x8 | x6 :| x4 D4 |] %15
w: |||com-|||God’s|||||||||
w: |||bow-|||His|||||||||
w: |||nor|||my|||||||||
w: |||vic-|||through|||||||||
V:3
 [D,A,]2 | [D,A,]3 [D,G,] [D,F,]2 [D,F,]2 | G,2 [G,B,]2 [G,B,]2 [G,D]2 | %3
w: ~|~ ~ ~ ~|~ ~ ~ ~|
w: ~|~ ~ ~ ~|~ ~ ~ ~|
 [D,D]3 [D,A,] [D,A,]2 (G,F,) | [A,,A,]2 [A,,A,]2 [A,,A,]2 [A,,A,]2 | %5
w: ~ ~ ~ ~ *|~ ~ ~ ~|
w: ~ ~ ~ ~ *|~ ~ ~ ~|
 [D,A,]3 [D,G,] [D,F,]2 [D,F,]2 | G,2 [G,B,]2 [G,B,]2 [G,D]2 | [D,D]2 [D,A,]2 [B,,B,]2 [B,,F,]2 | %8
w: ~ ~ ~ ~|~ ~ ~ ~|~ ~ ~ ~|
w: ~ ~ ~ ~|~ ~ ~ ~|~ ~ ~ ~|
 [A,,A,]3 [A,,G,] [D,F,]3 |: [D,A,]2 | [D,D]2 [F,A,]2 A,2 [G,C]2 | [F,D]2 [G,D]2 [D,D]2 [D,D]2 | %12
w: ~ He lead-|eth|me, He lead- eth|me, By His own|
w: ~ His faith-|ful|follow- er I would|be, For by His|
 [D,D]2 [D,A,]2 [B,,B,]2 [B,,F,]2 | [A,,A,]2 [A,,A,]2 [A,,A,]2 :| [A,,A,]3 [A,,G,] [D,F,]4 |] %15
w: hand He lead- eth|me; * *||
w: hand He ~ ~|~ lead- eth|me. * *|
V:4
 x2 | x8 | x8 | x6 D,2 | x8 | x8 | G,2 x6 | x8 | x7 |: x2 | x8 | x8 | x8 | x6 :| x8 |] %15
w: |||~|||~|||||||||
w: |||~|||~|||||||||

